X: 42361
T: Welcome To Ghent
R: reel
M: 4/4
K: Gmajor
|:B2BA GBdg|e/f/g dB ABGA|B2BA GBdg|1 e/f/g fa gedc:|2 e/f/g fa g2z2||
gBB aBB gB|B gBB gfed|B/c/d ef g2ga|gedB A2GA|
gBB aBB gc|c gcc gfed|B/c/d ef g2ga|gedB A2GA||

